X: 6196
T: Careless Sally
R: reel
M: 4/4
K: Gmajor
|:GBdB cecA|ABcA GFGD|GBdB cecA|BcdB AF G2:|
|:gggf ee e2|aaag fd d2|geeg fddf|ecAd BG G2:|

